X:1
T:Title
%%score { 1 | ( 2 3 ) }
L:1/8
M:4/4
K:E
V:1 treble nm="Grand Piano"
V:2 bass 
V:3 bass 
V:1
 z4 z2[Q:1/4=94] E2 | [B,G]3 G FEEF | E2 D2 D2 B,2 | [CA]3 G F^EFG |[M:3/4] [A,F]2 [G,E]2 B,2 | %5
[M:1/4] G2 |[M:4/4] [B,G]3 F [CE]2 [CE]2 | [^A,F]3 E [B,D]2 .[B,D]2 | [G,E]2 [G,B,]2 FEDE | %9
 [B,G]3 F[K:bass] [E,G,E]4 | B,2[K:treble] E>F G3 E | GGFE ED D2 |[M:7/8] B,2 [DF]>[EG] [DA]3 | %13
[M:1/8] [Ac] |[M:4/4] [Ac][Ac][GB][DF] [FA][EG] [EG]2 | [Ge]2 [Ae]>[Ae] [Ge]3 [EB] | %16
 [^EB][EB][Ec][EG] BA A2 | ^A2 A2 [DB]3 [Ec] |[M:3/4] [DB]2 D2 E2 |] %19
V:2
 z4 z2 G,2 | E,2 z B, A,G,G,A, | [B,,G,]2 [F,,F,]2 F,2 A,2 | B,,2 z B, A,G,A,B, | %4
[M:3/4] E,2 E,,2 G,2 |[M:1/4] B,2 |[M:4/4] G,2 z D C,2 C,,2 | F,2 z C B,,2 z A, | %8
 E,2 B,,2 A,G,F,G, | B,,2 z A, E,,4 | [E,G,]2 [E,G,B,]>[E,A,D] [E,B,E]3 [E,G,B,] | %11
 [E,B,E][E,B,E][E,A,D][E,G,B,] [E,G,B,][F,A,B,] [F,A,B,]2 | %12
[M:7/8] [B,,A,]2 [B,,A,]>[B,,G,] [B,,F,]3 |[M:1/8] [B,,B,] | %14
[M:4/4] [B,,B,][B,,B,][B,,B,][B,,B,] [E,B,][E,B,] [E,B,]2 | [E,B,]2 [E,C]>[E,C] [E,B,]3 [E,G,] | %16
 [C,G,][C,G,][C,G,][C,C] [F,CF][F,CF] [F,CF]2 | [F,CE]2 [F,CE]2 [B,,B,]3 [B,,A,] | %18
[M:3/4] [B,,F,]2 [B,,A,B,]2 [E,G,B,]2 |] %19
V:3
 x8 | z2 E,,2 z4 | x8 | z2 B,,,2 z4 |[M:3/4] x6 |[M:1/4] x2 |[M:4/4] z2 G,,2 z4 | %7
 z2 F,,2 z2 B,,,2 | x8 | z2 B,,,2 z4 | x8 | x8 |[M:7/8] x7 |[M:1/8] x |[M:4/4] x8 | x8 | x8 | x8 | %18
[M:3/4] x6 |] %19

